flaticon/programming-line/list.svg

<svg xmlns="http://www.w3.org/2000/svg" width="32" height="32" viewBox="0 0 24 24">
    <path d="M 21.769531 1.503906 L 5.988281 1.503906 C 4.757812 1.503906 3.757812 2.503906 3.757812 3.734375 L 3.757812 18.035156 L 0.351562 18.035156 C 0.15625 18.035156 0 18.191406 0 18.386719 L 0 20.265625 C 0 21.496094 1 22.496094 2.230469 22.496094 L 18.011719 22.496094 C 19.242188 22.496094 20.242188 21.496094 20.242188 20.265625 L 20.242188 5.964844 L 23.648438 5.964844 C 23.84375 5.964844 24 5.808594 24 5.613281 L 24 3.734375 C 24 2.503906 23 1.503906 21.769531 1.503906 Z M 2.230469 21.792969 C 1.390625 21.792969 0.703125 21.109375 0.703125 20.265625 L 0.703125 18.738281 L 4.109375 18.738281 C 4.109375 18.738281 4.109375 18.738281 4.113281 18.738281 L 15.78125 18.738281 L 15.78125 20.265625 C 15.78125 20.855469 16.011719 21.394531 16.386719 21.792969 Z M 19.539062 20.265625 C 19.539062 21.109375 18.851562 21.792969 18.011719 21.792969 C 17.171875 21.792969 16.484375 21.109375 16.484375 20.265625 L 16.484375 18.386719 C 16.484375 18.191406 16.328125 18.035156 16.132812 18.035156 L 4.460938 18.035156 L 4.460938 3.734375 C 4.460938 2.890625 5.148438 2.207031 5.988281 2.207031 L 20.144531 2.207031 C 19.769531 2.605469 19.539062 3.144531 19.539062 3.734375 Z M 23.296875 5.261719 L 20.242188 5.261719 L 20.242188 3.734375 C 20.242188 2.890625 20.925781 2.207031 21.769531 2.207031 C 22.609375 2.207031 23.296875 2.890625 23.296875 3.734375 Z M 23.296875 5.261719"/>
    <path d="M7.492188 4.882812L6.738281 4.882812C6.546875 4.882812 6.386719 5.042969 6.386719 5.238281 6.386719 5.429688 6.546875 5.589844 6.738281 5.589844L7.492188 5.589844C7.6875 5.589844 7.84375 5.429688 7.84375 5.238281 7.84375 5.042969 7.6875 4.882812 7.492188 4.882812zM17.261719 4.882812L8.992188 4.882812C8.800781 4.882812 8.640625 5.042969 8.640625 5.238281 8.640625 5.429688 8.800781 5.589844 8.992188 5.589844L17.261719 5.589844C17.453125 5.589844 17.613281 5.429688 17.613281 5.238281 17.613281 5.042969 17.453125 4.882812 17.261719 4.882812zM7.492188 6.761719L6.738281 6.761719C6.546875 6.761719 6.386719 6.921875 6.386719 7.117188 6.386719 7.308594 6.546875 7.46875 6.738281 7.46875L7.492188 7.46875C7.6875 7.46875 7.84375 7.308594 7.84375 7.117188 7.84375 6.921875 7.6875 6.761719 7.492188 6.761719zM8.992188 7.46875L15.757812 7.46875C15.953125 7.46875 16.109375 7.308594 16.109375 7.117188 16.109375 6.921875 15.953125 6.761719 15.757812 6.761719L8.992188 6.761719C8.800781 6.761719 8.640625 6.921875 8.640625 7.117188 8.640625 7.308594 8.800781 7.46875 8.992188 7.46875zM7.492188 8.640625L6.738281 8.640625C6.546875 8.640625 6.386719 8.800781 6.386719 8.992188 6.386719 9.1875 6.546875 9.347656 6.738281 9.347656L7.492188 9.347656C7.6875 9.347656 7.84375 9.1875 7.84375 8.992188 7.84375 8.800781 7.6875 8.640625 7.492188 8.640625zM17.261719 8.640625L8.992188 8.640625C8.800781 8.640625 8.640625 8.800781 8.640625 8.992188 8.640625 9.1875 8.800781 9.347656 8.992188 9.347656L17.261719 9.347656C17.453125 9.347656 17.613281 9.1875 17.613281 8.992188 17.613281 8.800781 17.453125 8.640625 17.261719 8.640625zM7.492188 10.519531L6.738281 10.519531C6.546875 10.519531 6.386719 10.679688 6.386719 10.871094 6.386719 11.066406 6.546875 11.226562 6.738281 11.226562L7.492188 11.226562C7.6875 11.226562 7.84375 11.066406 7.84375 10.871094 7.84375 10.679688 7.6875 10.519531 7.492188 10.519531zM8.992188 11.226562L16.507812 11.226562C16.703125 11.226562 16.859375 11.066406 16.859375 10.871094 16.859375 10.679688 16.703125 10.519531 16.507812 10.519531L8.992188 10.519531C8.800781 10.519531 8.640625 10.679688 8.640625 10.871094 8.640625 11.066406 8.800781 11.226562 8.992188 11.226562zM7.492188 12.398438L6.738281 12.398438C6.546875 12.398438 6.386719 12.558594 6.386719 12.75 6.386719 12.945312 6.546875 13.105469 6.738281 13.105469L7.492188 13.105469C7.6875 13.105469 7.84375 12.945312 7.84375 12.75 7.84375 12.558594 7.6875 12.398438 7.492188 12.398438zM8.992188 13.105469L15.007812 13.105469C15.199219 13.105469 15.359375 12.945312 15.359375 12.75 15.359375 12.558594 15.199219 12.398438 15.007812 12.398438L8.992188 12.398438C8.800781 12.398438 8.640625 12.558594 8.640625 12.75 8.640625 12.945312 8.800781 13.105469 8.992188 13.105469zM7.492188 14.277344L6.738281 14.277344C6.546875 14.277344 6.386719 14.4375 6.386719 14.628906 6.386719 14.824219 6.546875 14.980469 6.738281 14.980469L7.492188 14.980469C7.6875 14.980469 7.84375 14.824219 7.84375 14.628906 7.84375 14.4375 7.6875 14.277344 7.492188 14.277344zM17.261719 14.277344L8.992188 14.277344C8.800781 14.277344 8.640625 14.4375 8.640625 14.628906 8.640625 14.824219 8.800781 14.980469 8.992188 14.980469L17.261719 14.980469C17.453125 14.980469 17.613281 14.824219 17.613281 14.628906 17.613281 14.4375 17.453125 14.277344 17.261719 14.277344zM7.492188 16.15625L6.738281 16.15625C6.546875 16.15625 6.386719 16.3125 6.386719 16.507812 6.386719 16.703125 6.546875 16.859375 6.738281 16.859375L7.492188 16.859375C7.6875 16.859375 7.84375 16.703125 7.84375 16.507812 7.84375 16.3125 7.6875 16.15625 7.492188 16.15625zM16.132812 16.15625L8.992188 16.15625C8.800781 16.15625 8.640625 16.3125 8.640625 16.507812 8.640625 16.703125 8.800781 16.859375 8.992188 16.859375L16.132812 16.859375C16.328125 16.859375 16.484375 16.703125 16.484375 16.507812 16.484375 16.3125 16.328125 16.15625 16.132812 16.15625zM16.132812 16.15625"/>
</svg>

<svg xmlns="http://www.w3.org/2000/svg" width="32" height="32" viewBox="0 0 24 24">
    <path d="M21.77 1.504H5.988c-1.23 0-2.23 1-2.23 2.23v14.301H.352a.35.35 0 0 0-.352.352v1.879c0 1.23 1 2.23 2.23 2.23h15.782c1.23 0 2.23-1 2.23-2.23V5.965h3.406A.35.35 0 0 0 24 5.613V3.734c0-1.23-1-2.23-2.23-2.23zM2.23 21.793a1.53 1.53 0 0 1-1.527-1.527v-1.528h15.078v1.528c0 .59.23 1.129.606 1.527zm17.31-1.527a1.53 1.53 0 0 1-1.528 1.527 1.53 1.53 0 0 1-1.528-1.527v-1.88a.35.35 0 0 0-.351-.35H4.46V3.733a1.53 1.53 0 0 1 1.527-1.527h14.157a2.225 2.225 0 0 0-.606 1.527zm3.757-15.004h-3.055V3.734a1.527 1.527 0 1 1 3.055 0zm0 0"/>
    <path d="M7.492 4.883h-.754a.356.356 0 0 0-.351.355c0 .192.16.352.351.352h.754a.353.353 0 1 0 0-.707zm0 0M17.262 4.883h-8.27a.356.356 0 0 0-.351.355c0 .192.16.352.351.352h8.27c.191 0 .351-.16.351-.352a.356.356 0 0 0-.351-.355zm0 0M7.492 6.762h-.754a.356.356 0 0 0-.351.355c0 .192.16.352.351.352h.754a.353.353 0 1 0 0-.707zm0 0M8.992 7.469h6.766a.353.353 0 1 0 0-.707H8.992a.356.356 0 0 0-.351.355c0 .192.16.352.351.352zm0 0M7.492 8.64h-.754a.355.355 0 0 0-.351.352c0 .195.16.356.351.356h.754a.353.353 0 0 0 0-.707zm0 0M17.262 8.64h-8.27a.355.355 0 0 0-.351.352c0 .195.16.356.351.356h8.27c.191 0 .351-.16.351-.356a.355.355 0 0 0-.351-.351zm0 0M7.492 10.52h-.754a.355.355 0 0 0-.351.351c0 .195.16.356.351.356h.754a.353.353 0 0 0 0-.707zm0 0M8.992 11.227h7.516a.353.353 0 0 0 0-.707H8.992a.355.355 0 0 0-.351.351c0 .195.16.356.351.356zm0 0M7.492 12.398h-.754a.355.355 0 0 0-.351.352c0 .195.16.355.351.355h.754a.353.353 0 0 0 0-.707zm0 0M8.992 13.105h6.016c.191 0 .351-.16.351-.355a.355.355 0 0 0-.351-.352H8.992a.355.355 0 0 0-.351.352c0 .195.16.355.351.355zm0 0M7.492 14.277h-.754a.355.355 0 0 0-.351.352c0 .195.16.351.351.351h.754a.35.35 0 0 0 .352-.351.353.353 0 0 0-.352-.352zm0 0M17.262 14.277h-8.27a.355.355 0 0 0-.351.352c0 .195.16.351.351.351h8.27a.353.353 0 0 0 .351-.351.355.355 0 0 0-.351-.352zm0 0M7.492 16.156h-.754a.353.353 0 0 0-.351.352c0 .195.16.351.351.351h.754a.35.35 0 0 0 .352-.351.35.35 0 0 0-.352-.352zm0 0M16.133 16.156h-7.14a.353.353 0 0 0-.352.352c0 .195.16.351.351.351h7.14a.35.35 0 0 0 .352-.351.35.35 0 0 0-.351-.352zm0 0"/>
</svg>
